dist/img/1.svg

<svg version="1.1" xmlns="http://www.w3.org/2000/svg" xmlns:xlink="http://www.w3.org/1999/xlink" x="0px" y="0px" width="435px" height="512px"><path d="M63.6502686,200.4663696V322.803833c0,20.553894-14.3209229,37.3813477-31.8167725,37.3813477C14.3375854,360.1851807,0,343.3744507,0,322.803833V200.4663696c0-20.553894,14.3208618-37.3814087,31.8334961-37.3814087C49.3460693,163.0849609,63.6502686,179.9124756,63.6502686,200.4663696z M75.3977051,158.8572388c-4.4406128-47.9260254,16.3567505-85.9807739,70.5684204-113.8151245L125.4456177,8.2121582c-1.6710205-2.9911499-1.1697388-6.46698,1.0861816-7.7369385c2.2559204-1.2700195,5.4810791,0.1503906,7.1520996,3.1415405l20.9884033,37.6654663c45.7156982-16.8994141,86.1157227-14.039978,123.557373-0.1838379l20.8880615-37.498291c1.6543579-2.9912109,4.8961792-4.3948975,7.1520996-3.1416016s2.7572632,4.7457886,1.0861816,7.7369385L286.935791,44.8415527l0.0334473,0.0167236c67.9657593,33.4325562,74.2661743,85.9853516,70.986145,113.9989624H75.3977051z M275.6420288,107.1362915c8.2696533,4.7675171,18.6627808-1.2242432,18.6627808-10.7592773c0-9.5350952-10.3931274-15.5268555-18.6627808-10.7593384C267.3724365,90.3851929,267.3724365,102.3687744,275.6420288,107.1362915z M145.9020386,107.1362915c8.2696533,4.7675171,18.6627808-1.2242432,18.6627808-10.7592773c0-9.5350952-10.3931274-15.5268555-18.6627808-10.7593384C137.6324463,90.3851929,137.6324463,102.3687744,145.9020386,107.1362915z M74.4953613,171.2062988v208.3964844c1.4537964,17.5961304,17.746521,31.5828247,37.3646851,31.5828247h20.7878418v63.4330444c0,20.553894,14.3041382,37.3813477,31.8167725,37.3813477c17.5125732,0,31.8334351-16.8274536,31.8334351-37.3813477v-63.4330444h42.4111938v63.4330444c0,20.553894,14.3209229,37.3813477,31.8334961,37.3813477c17.5126343,0,31.8334961-16.8274536,31.8334961-37.3813477v-63.4330444h19.0499878c19.6014404,0,35.7938843-13.9866943,37.2644043-31.5828247l-0.0003662-208.3964844H74.4953613z M402.8731689,163.0849609c-17.5125732,0-31.8334961,16.8275146-31.8334961,37.3814087V322.803833c0,20.5706177,14.3209229,37.3813477,31.8334961,37.3813477s31.8334961-16.8274536,31.8334961-37.3813477V200.4663696C434.706665,179.9124756,420.3857422,163.0849609,402.8731689,163.0849609z"/></svg>

<svg xmlns="http://www.w3.org/2000/svg" width="435" height="512"><path d="M63.65 200.466v122.338c0 20.554-14.32 37.381-31.817 37.381C14.338 360.185 0 343.375 0 322.804V200.466c0-20.554 14.32-37.381 31.833-37.381 17.513 0 31.817 16.827 31.817 37.381zm11.748-41.609c-4.44-47.926 16.356-85.98 70.568-113.815l-20.52-36.83c-1.671-2.991-1.17-6.467 1.086-7.737 2.256-1.27 5.48.15 7.152 3.142l20.988 37.665c45.716-16.9 86.116-14.04 123.558-.184L299.118 3.6c1.654-2.99 4.896-4.395 7.152-3.142s2.757 4.746 1.086 7.737l-20.42 36.647.033.016c67.966 33.433 74.266 85.986 70.986 114H75.398zm200.244-51.72c8.27 4.767 18.663-1.225 18.663-10.76s-10.393-15.527-18.663-10.76c-8.27 4.768-8.27 16.752 0 21.52zm-129.74 0c8.27 4.767 18.663-1.225 18.663-10.76s-10.393-15.527-18.663-10.76c-8.27 4.768-8.27 16.752 0 21.52zm-71.407 64.07v208.396c1.454 17.596 17.747 31.583 37.365 31.583h20.788v63.433c0 20.554 14.304 37.381 31.817 37.381 17.512 0 31.833-16.827 31.833-37.381v-63.433h42.411v63.433c0 20.554 14.321 37.381 31.834 37.381 17.512 0 31.833-16.827 31.833-37.381v-63.433h19.05c19.602 0 35.794-13.987 37.265-31.583V171.206H74.494zm328.378-8.122c-17.512 0-31.833 16.827-31.833 37.381v122.338c0 20.57 14.32 37.381 31.833 37.381s31.834-16.827 31.834-37.381V200.466c0-20.554-14.321-37.381-31.834-37.381z"/></svg>
